!!!!SEGMENT: pl-wumfc--r282--001-011_paderewski-ignacy-jan--exercises-1-exercise-11.krn
!!!cenid: 18xx:3170
!!!COM: Paderewski, Ignacy Jan
!!!COM-rismID:
!!!CDT: 1860/11/18-1941/06/29
!!!CNT: Polish
!!!GTL: [Exercises 1]
!!!OTL: [Exercise] 11
!!!OMV: 011
!!!PDT:
!!!AGN:
!!!SMS-siglum: PL-Wumfc
!!!SMS-shelfmark: R282
!!!SMS-shelfwork: 001-011 G
!!!SMS-variant:
!!!SMS-altvar:
!!!NIFC-rismSourceID: 1001158933
!!!NIFC-islandoraID: pl-wumfc:419
!!!URL-pdf-islandora: https://repozytorium.nifc.pl/islandora/object/pl-wumfc%3A419/datastream/PDF/view
!!!URL-scan: https://polish.musicsources.pl/pl/lokalizacje/galeria/rekopisy/4702 @EN{Scan on Polish Music Herritage in Open Access Website} @PL{Skany w portalu Dziedzictwo Muzyki Polskiej w otwartym dostępie}
!!!ONB-nifc: UWAGA: pierwsza grupa ćwiczeń na skanach 0004-0007
!!!AIN: 1 piano
!!!key: G
**kern	**kern
*part1	*part1
*staff2	*staff1
*>[A,A,B]	*>[A,A,B]
*>A	*>A
*I"[Pianoforte]	*
*Ipiano	*
*ICklav	*
*clefF4	*clefG2
*k[f#]	*k[f#]
*G:	*G:
=1	=1
!LO:TX:a:i:t=C. f	!LO:TX:t=P:global:problem=brak oznaczenia metrycznego
2G\	4r
.	4gg/
2A\	4ff#/
.	4ee/
=2	=2
2B\	4dd/
.	4cc/
2d\	4b/
.	4a/
=3	=3
2G\	4b/
.	4cc/
2F#\	4dd/
.	4a/
=4	=4
1E	4g/
.	4a/
.	4b/
.	4cc/
=5	=5
1D	4dd\
.	4ee\
.	4ff#\
.	4gg\
=6	=6
1D;	4ff#\
.	4ee\
.	2dd;\
=7	=7
2E\	4cc\
.	4ee\
2F#\	4dd\
.	4cc\
=8	=8
2G\	4b\
.	4dd\
2A\	4cc\
.	4a\
=9	=9
2B\	4g/
.	4d/
2A\	4e/
.	4f#/
=10	=10
1G;	1g;
!!LO:PB:g=original
=11:|!	=11:|!
*>B	*>B
2B\	4dd\
.	4ee\
2B\	4ff#\
.	4gg\
=12	=12
2A\	4ff#\
.	4ee\
2B\	4dd\
.	4ff#\
=13	=13
2c\	4ee\
.	4e/
2B\	4f#/
.	4g#X/
=14	=14
1A;	1a
=15	=15
2E\	4cc\
.	4ee\
2F#\	4dd\
.	4cc\
=16	=16
2G\	4b\
.	4gg\
2A\	4ff#\
.	4ee\
=17	=17
2B\	4dd\
.	4d/
2A\	4e/
.	4f#/
=18	=18
1G;	1g;
==	==
*-	*-
!!!system-decoration: (s1,s2)
!!!ENC: Berenika Jozajtis
!!!END: 2021-11-11
!!!ENC: Andrzej Kubiczek
!!!END: 2021-11-16
